src/utils/icons/hourglass.svg

<?xml version='1.0' encoding='utf-8'?> <svg version='1.1' xmlns='http://www.w3.org/2000/svg' xmlns:xlink='http://www.w3.org/1999/xlink' height='16.01000000000022' width='6.80645751953125'> <defs> <path id='hourglass-path-0' opacity='1' fill-rule='evenodd' d='M1.7419355374593124,10.967742272892142 L1.7419355374593124,14.25806495475976 L5.032258219326939,14.25806495475976 L5.032258219326939,10.967742272892142 C4.580645302207853,10.7419358143326 4.000000123054742,10.612903552298576 3.387096878393126,10.612903552298576 C2.774193633731509,10.612903552298576 2.1935484545783983,10.7419358143326 1.7419355374593124,10.967742272892142Z'/> <path id='hourglass-path-1' opacity='1' fill-rule='evenodd' d='M4.5161291711908635,6.032258250090631 C5.000000153818457,5.8709679225480995 5.064516284835468,5.612903398480049 5.064516284835468,5.3870969399205055 L5.064516284835468,4.548387236699341 C4.612903367716382,4.774193695258885 4.032258188563272,4.903225957292911 3.419354943901655,4.903225957292911 C2.806451699240038,4.903225957292911 2.2258065200869273,4.774193695258885 1.7741936029678413,4.548387236699341 L1.7741936029678413,5.3870969399205055 C1.7741936029678413,5.612903398480049 1.8387097339848537,5.8709679225480995 2.2903226511039394,6.032258250090631 C2.3225807166124457,6.032258250090631 2.3225807166124457,6.064516315599138 2.354838782120952,6.064516315599138 C2.8709678302570505,6.258064708650176 3.193548485342112,6.4838711672097205 3.419354943901655,6.774193756786277 C3.6129033369526917,6.516129232718226 3.9354839920377533,6.290322774158682 4.419354974665346,6.096774381107643 C4.419354974665346,6.064516315599137 4.483871105682358,6.032258250090631 4.5161291711908635,6.032258250090631Z'/> <path id='hourglass-path-2' opacity='1' fill-rule='evenodd' d='M5.225799560546875,7.6129150390625 C5.19354248046875,7.6129150390625 5.161285400390625,7.6451416015625 5.1290283203125,7.6451416015625 C4.903228759765625,7.70965576171875 4.838714599609375,7.741943359375 4.80645751953125,7.774169921875 L4.80645751953125,8.225830078125 C4.838714599609375,8.225830078125 4.838714599609375,8.258056640625 4.8709716796875,8.258056640625 C6.096771240234375,8.6129150390625 6.80645751953125,9.48388671875 6.80645751953125,10.6129150390625 L6.80645751953125,15.45159912109375 C6.80645751953125,15.774169921875 6.54840087890625,16 6.258056640625,16 L0.54840087890625,16 C0.258056640625,16 0,15.741943359375 0,15.45159912109375 L0,10.6129150390625 C0,9.51611328125 0.67742919921875,8.6451416015625 1.838714599609375,8.29034423828125 C1.93548583984375,8.258056640625 1.967742919921875,8.225830078125 2,8.225830078125 L2,7.774169921875 C1.967742919921875,7.774169921875 1.8709716796875,7.70965576171875 1.67742919921875,7.6451416015625 C1.645172119140625,7.6451416015625 1.645172119140625,7.6129150390625 1.6129150390625,7.6129150390625 C0.580657958984375,7.225830078125 0,6.41937255859375 0,5.3870849609375 L0,0.54840087890625 C0,0.225830078125 0.258056640625,0 0.54840087890625,0 L6.258056640625,0 C6.54840087890625,0 6.80645751953125,0.258056640625 6.80645751953125,0.54840087890625 L6.80645751953125,5.3870849609375 C6.80645751953125,6.41937255859375 6.225799560546875,7.225830078125 5.225799560546875,7.6129150390625 L5.225799560546875,7.6129150390625ZM4.45159912109375,9.225830078125 C3.80645751953125,8.96771240234375 3.709686279296875,8.58062744140625 3.709686279296875,8.19354248046875 C3.709686279296875,8.1290283203125 3.709686279296875,8.06451416015625 3.67742919921875,7.96771240234375 C3.67742919921875,7.32257080078125 3.838714599609375,6.93548583984375 4.645172119140625,6.6451416015625 C4.645172119140625,6.6451416015625 4.67742919921875,6.6129150390625 4.709686279296875,6.6129150390625 C5.354827880859375,6.3870849609375 5.67742919921875,5.96771240234375 5.67742919921875,5.3548583984375 L5.67742919921875,1.06451416015625 L1.06451416015625,1.06451416015625 L1.06451416015625,5.32257080078125 C1.06451416015625,5.93548583984375 1.3870849609375,6.3548583984375 2.032257080078125,6.58062744140625 C2.032257080078125,6.6129150390625 2.06451416015625,6.6129150390625 2.06451416015625,6.6129150390625 C2.903228759765625,6.93548583984375 3.06451416015625,7.29034423828125 3.06451416015625,7.96771240234375 L3.06451416015625,8.19354248046875 C3.06451416015625,8.67742919921875 2.903228759765625,9.0322265625 2.225799560546875,9.32257080078125 L2.19354248046875,9.32257080078125 C1.483856201171875,9.54840087890625 1.096771240234375,9.96771240234375 1.096771240234375,10.6129150390625 L1.096771240234375,14.9031982421875 L5.709686279296875,14.9031982421875 L5.709686279296875,10.58062744140625 C5.709686279296875,9.93548583984375 5.290313720703125,9.48388671875 4.51611328125,9.258056640625 C4.51611328125,9.258056640625 4.483856201171875,9.225830078125 4.45159912109375,9.225830078125 L4.45159912109375,9.225830078125Z'/> </defs> <g opacity='1'> <g opacity='1'> <use xlink:href='#hourglass-path-0' fill='rgb(189,189,189)' fill-opacity='1'/> </g> <g opacity='1'> <use xlink:href='#hourglass-path-1' fill='rgb(189,189,189)' fill-opacity='1'/> </g> <g opacity='1'> <use xlink:href='#hourglass-path-2' fill='rgb(189,189,189)' fill-opacity='1'/> </g> </g> </svg>

<?xml version="1.0" encoding="UTF-8"?>
<svg width="16" height="16.01" version="1.1" xmlns="http://www.w3.org/2000/svg" xmlns:cc="http://creativecommons.org/ns#" xmlns:dc="http://purl.org/dc/elements/1.1/" xmlns:rdf="http://www.w3.org/1999/02/22-rdf-syntax-ns#">
 <g transform="matrix(1.0284 0 0 1 4.5 0)" fill="#bdbdbd" fill-rule="evenodd">
  <path d="m1.7419 10.968v3.2903h3.2903v-3.2903c-0.45161-0.22581-1.0323-0.35484-1.6452-0.35484-0.6129 0-1.1935 0.12903-1.6452 0.35484z"/>
  <path d="m4.5161 6.0323c0.48387-0.16129 0.54839-0.41935 0.54839-0.64516v-0.83871c-0.45161 0.22581-1.0323 0.35484-1.6452 0.35484-0.6129 0-1.1935-0.12903-1.6452-0.35484v0.83871c0 0.22581 0.064516 0.48387 0.51613 0.64516 0.032258 0 0.032258 0.032258 0.064516 0.032258 0.51613 0.19355 0.83871 0.41935 1.0645 0.70968 0.19355-0.25806 0.51613-0.48387 1-0.67742 0-0.032258 0.064516-0.064516 0.096774-0.064516z"/>
  <path d="m5.2258 7.6129c-0.032257 0-0.064514 0.032257-0.096771 0.032257-0.2258 0.064514-0.29031 0.096771-0.32257 0.12903v0.4516c0.032257 0 0.032257 0.032257 0.064514 0.032257 1.2258 0.35486 1.9355 1.2258 1.9355 2.3549v4.8387c-1e-7 0.3226-0.25806 0.5484-0.5484 0.5484h-5.7097c-0.29034 0-0.5484-0.25806-0.5484-0.5484v-4.8387c0-1.0968 0.67743-1.9677 1.8387-2.3226 0.096771-0.032257 0.12903-0.064514 0.16129-0.064514v-0.4516c-0.032257 0-0.12903-0.064514-0.32257-0.12903-0.032257 0-0.032257-0.032257-0.064514-0.032257-1.0323-0.38712-1.6129-1.1936-1.6129-2.2258v-4.8387c0-0.3226 0.25806-0.5484 0.5484-0.5484h5.7097c0.29034 0 0.5484 0.25806 0.5484 0.5484v4.8387c0 1.0323-0.58066 1.8387-1.5807 2.2258zm-0.7742 1.6129c-0.64514-0.25806-0.74191-0.64514-0.74191-1.0323 0-0.064514 0-0.12903-0.032257-0.2258 0-0.64517 0.16129-1.0323 0.96774-1.3226 0 0 0.032257-0.032257 0.064514-0.032257 0.64514-0.22583 0.96774-0.64517 0.96774-1.2581v-4.2903h-4.6129v4.2581c0 0.61292 0.32257 1.0323 0.96774 1.2581 0 0.032257 0.032257 0.032257 0.032257 0.032257 0.83871 0.32257 1 0.6774 1 1.3548v0.2258c0 0.48389-0.16129 0.83871-0.83871 1.129h-0.032257c-0.70969 0.22583-1.0968 0.64517-1.0968 1.2903v4.2903h4.6129v-4.3226c0-0.64517-0.41937-1.0968-1.1936-1.3226 0 0-0.032257-0.032257-0.064514-0.032257z"/>
 </g>
</svg>
